icons/solid/arrows-pointing-in.svg

<svg width="24" height="24" viewBox="0 0 24 24" fill="none" xmlns="http://www.w3.org/2000/svg">
<path fill-rule="evenodd" clip-rule="evenodd" d="M3.21967 3.21967C3.51256 2.92678 3.98744 2.92678 4.28033 3.21967L8.25 7.18934L8.25 4.5C8.25 4.08579 8.58579 3.75 9 3.75C9.41421 3.75 9.75 4.08579 9.75 4.5L9.75 9C9.75 9.41421 9.41421 9.75 9 9.75H4.5C4.08579 9.75 3.75 9.41421 3.75 9C3.75 8.58579 4.08579 8.25 4.5 8.25L7.18934 8.25L3.21967 4.28033C2.92678 3.98744 2.92678 3.51256 3.21967 3.21967ZM20.7803 3.21967C21.0732 3.51256 21.0732 3.98744 20.7803 4.28033L16.8107 8.25H19.5C19.9142 8.25 20.25 8.58579 20.25 9C20.25 9.41421 19.9142 9.75 19.5 9.75H15C14.5858 9.75 14.25 9.41421 14.25 9V4.5C14.25 4.08579 14.5858 3.75 15 3.75C15.4142 3.75 15.75 4.08579 15.75 4.5V7.18934L19.7197 3.21967C20.0126 2.92678 20.4874 2.92678 20.7803 3.21967ZM3.75 15C3.75 14.5858 4.08579 14.25 4.5 14.25L9 14.25C9.41421 14.25 9.75 14.5858 9.75 15V19.5C9.75 19.9142 9.41421 20.25 9 20.25C8.58579 20.25 8.25 19.9142 8.25 19.5L8.25 16.8107L4.28033 20.7803C3.98744 21.0732 3.51256 21.0732 3.21967 20.7803C2.92678 20.4874 2.92678 20.0126 3.21967 19.7197L7.18934 15.75H4.5C4.08579 15.75 3.75 15.4142 3.75 15ZM14.25 15C14.25 14.5858 14.5858 14.25 15 14.25H19.5C19.9142 14.25 20.25 14.5858 20.25 15C20.25 15.4142 19.9142 15.75 19.5 15.75H16.8107L20.7803 19.7197C21.0732 20.0126 21.0732 20.4874 20.7803 20.7803C20.4874 21.0732 20.0126 21.0732 19.7197 20.7803L15.75 16.8107V19.5C15.75 19.9142 15.4142 20.25 15 20.25C14.5858 20.25 14.25 19.9142 14.25 19.5L14.25 15Z" fill="#0F172A"/>
</svg>

<svg xmlns="http://www.w3.org/2000/svg" viewBox="0 0 24 24" fill="currentColor" aria-hidden="true" data-slot="icon">
  <path fill-rule="evenodd" d="M3.22 3.22a.75.75 0 0 1 1.06 0l3.97 3.97V4.5a.75.75 0 0 1 1.5 0V9a.75.75 0 0 1-.75.75H4.5a.75.75 0 0 1 0-1.5h2.69L3.22 4.28a.75.75 0 0 1 0-1.06Zm17.56 0a.75.75 0 0 1 0 1.06l-3.97 3.97h2.69a.75.75 0 0 1 0 1.5H15a.75.75 0 0 1-.75-.75V4.5a.75.75 0 0 1 1.5 0v2.69l3.97-3.97a.75.75 0 0 1 1.06 0ZM3.75 15a.75.75 0 0 1 .75-.75H9a.75.75 0 0 1 .75.75v4.5a.75.75 0 0 1-1.5 0v-2.69l-3.97 3.97a.75.75 0 0 1-1.06-1.06l3.97-3.97H4.5a.75.75 0 0 1-.75-.75Zm10.5 0a.75.75 0 0 1 .75-.75h4.5a.75.75 0 0 1 0 1.5h-2.69l3.97 3.97a.75.75 0 1 1-1.06 1.06l-3.97-3.97v2.69a.75.75 0 0 1-1.5 0V15Z" clip-rule="evenodd"/>
</svg>
